X:1
T:Down from His Glory
T:Down from His Glory
T:Arranged from Eduardo di Capua, 1898
T:William E. Booth-Clibborn, 1921
T:Public Domain Courtesy of the Cyber Hymnal™
T:Public Domain Courtesy of the Cyber Hymnal™
C:Arranged from Eduardo di Capua, 1898
Z:Public Domain
Z:Courtesy of the Cyber Hymnal™
%%score ( 1 2 ) ( 3 4 )
L:1/8
Q:1/4=115
M:4/4
K:F
V:1 treble 
V:2 treble 
V:3 bass 
V:4 bass 
V:1
 z2 [Fc]2 [FB]2 [FA]2 | [EG]4 [CF]4 | z2 [CF][CG] [FA]2 [CF]2 | [CE]4 [B,D]4 | z2 E2 [DF]2 [DG]2 | %5
w: 1.~Down from His|glo- ry,|Ev- er liv- ing|sto- ry,|My God and|
w: 2.~What con- de-|scen- sion,|Bring- ing us re-|demp- tion;|That in the|
w: 3.~With- out re-|luct- ance,|Flesh and blood His|sub- stance,|He took the|
 [CE]3 [CD] [CD]4 | z2 [CE]2 [CF]2 [CG]2 | [A,D]3 [A,C] [A,C]4 | z2 [Fc]2 [FB]2 [FA]2 | %9
w: Sav- ior came,|And Je- sus|was His name.|Born in a|
w: dead of night,|Not one faint|hope in sight,|God, gra- cious,|
w: form of man,|Re- vealed the|hid- den plan,|O glor- ious|
 [EG]4 [CF]4 | z2 [CF][CG] [FA]2 [CF]2 | [CE]4 [B,D]4 | z2 [DB]2 [DA]2 [DG]2 | %13
w: man- ger,|To His own a|strang- er,|A man of|
w: ten- der,|Laid a- side His|splen- dor,|Stoop- ing to|
w: mys- tery|Sa- cri- fice of|Cal- v’ry,|And now I|
 [Fc]2 [FA]2 [EG]2 [CF]2 | [EG]6 [EA]2 | F8 || %16
w: sor- rows, tears and|a- go-|ny.|
w: woo, to win, to|save my|soul.|
w: know Thou art the|great “I|Am.”|
"^Refrain" z2 !fermata![Af]2 !fermata![Af]2 !fermata![Ae]2 | [Ac]4 [Ac]4 | z2 [Ae]2 [Ae]2 [Ad]2 | %19
w: |||
w: O how I|love Him!|How I a-|
w: |||
 [GB]4 [GB]4 | z2 [Be]2 [Be]2 [Bd]2 | [GB]4 [GB]4 | z2 [EG]2 [EA]2 [EB]2 | [Fc]8 | %24
w: |||||
w: dore Him!|My breath, my|sun- shine,|my all in|all.|
w: |||||
 z2 [Fc]2 [Fc]2 [Fc]2 | [F_d]4 [Fd]4 | z2 [F_d]2 !fermata![Ff]2 [Fd]2 | [Fc]4 [Fc]4 | %28
w: ||||
w: The great Cre-|at- or|be- came my|Sav- ior,|
w: ||||
 z2 [FA]2 [EG]2 F2 | [Ec]4 [Ec]4 | z2 [EA]2 [EG]3 [CF] | [CF]8 |] %32
w: ||||
w: And all God’s|full- ness|dwell- eth in|Him.|
w: ||||
V:2
 x8 | x8 | x8 | x8 | x2 E2 x4 | x8 | x8 | x8 | x8 | x8 | x8 | x8 | x8 | x8 | x8 | F8 || x8 | x8 | %18
 x8 | x8 | x8 | x8 | x8 | x8 | x8 | x8 | x8 | x8 | x6 F2 | x8 | x8 | x8 |] %32
V:3
 F,,2 [F,A,]2 [F,D]2 [F,C]2 | [F,B,]4 [F,A,]4 | F,,2 [F,A,][F,B,] [F,C]2 [F,A,]2 | %3
 [B,,B,]4 [B,,B,]4 | B,,,2 [B,,B,]2 [B,,B,]2 [B,,B,]2 | [C,B,]3 [C,B,] [C,B,]4 | %6
 C,,2 [C,B,]2 [D,B,]2 [E,B,]2 | [F,A,]3 [F,A,] [F,A,]4 | F,,2 [F,A,]2 [F,D]2 [F,C]2 | %9
 [F,B,]4 [F,A,]4 | z2 [F,A,][F,B,] [F,C]2 [F,A,]2 | [B,,B,]4 [B,,B,]4 | %12
 B,,,2 [B,,D]2 [B,,C]2 [B,,B,]2 | [C,A,]2 [C,C]2 [C,B,]2 [C,A,]2 | [C,B,]6 [C,C]2 | [F,A,]8 || %16
 F,,2 [F,C]2 [F,C]2 [F,C]2 | [F,F]4 [F,F]4 | F,,2 [F,C]2 [F,C]2 [F,D]2 | [G,D]4 [G,D]4 | %20
 C,2 [C,C]2 [C,C]2 [C,D]2 | [C,E]4 [C,E]4 | B,,,2 [C,B,]2 [C,A,]2 [C,G,]2 | [F,A,]8 | %24
 F,,2 [F,A,]2 [F,A,]2 [F,A,]2 | [B,,B,]4 [B,,B,]4 | B,,2 B,2 [B,_D]2 [B,,B,]2 | [F,A,]4 [F,A,]4 | %28
 C,,2 [C,C]2 [C,B,]2 [C,A,]2 | [C,G,]4 [C,G,]4 | C,,2 [C,C]2 [C,B,]3 [F,,F,A,] | [F,,F,A,]8 |] %32
V:4
 x8 | x8 | x8 | x8 | x8 | x8 | x8 | x8 | x8 | x8 | x8 | x8 | x8 | x8 | x8 | x8 || x8 | x8 | x8 | %19
 x8 | x8 | x8 | x8 | x8 | x8 | x8 | x2 B,2 x4 | x8 | x8 | x8 | x8 | x8 |] %32

